jsapp/svg-icons/qt-number-lock.svg

<svg height="642" viewBox="0 0 642 642" width="642" xmlns="http://www.w3.org/2000/svg"><path d="m428.21 252.91c-.666667-21.926667 6.536667-39.833333 21.61-53.72s33.64-20.826667 55.7-20.820005c25.14 0 45.2 6.886672 60.18 20.660005s22.471012 33.23 22.471012 58.37c.067024 12.322022-3.295041 24.419916-9.711012 34.94-6.401851 10.63995-15.631 19.294441-26.66 25 6.231269 2.527984 12.033381 6.005878 17.2 10.31-28.379171-13.015468-60.606985-14.917309-90.32-5.33v-25.12h27c9.646667 0 16.82-3.436667 21.52-10.31s7.033333-16.483333 7-28.83c0-10.82-2.333333-19.6-7-26.34s-11.4-10.113333-20.2-10.12c-7.113333 0-13.24 3-18.38 9s-7.68 13.8-7.62 23.4h-52.41zm88.79 188h-.05c-.051328.046307-.09518.100279-.13.16v.2h.37v-.18c-.029103-.08031-.085814-.147655-.16-.19zm-466.79-200.84 51.42-1.14v220.7h54.08v-277.45l-105.5 18.82zm261.08 87-75.6 95.79v36.75h137.17c5.64301-5.362697 12.177434-9.700933 19.31-12.82v-5.71c-.002064-8.294586.822004-16.568756 2.46-24.7h-88.86l36.18-51.8c18.533333-23.333333 31.766667-42.250005 39.7-56.750005 7.933124-14.46947 12.029847-30.728986 11.9-47.229995 0-25.386667-7.11-45.446667-21.33-60.18s-34.023333-22.096667-59.41-22.090005c-24.886667 0-44.69 8.726672-59.41 26.180005s-21.83 38.75-21.33 63.89l.38 1h52.75c0-14.273333 2.38-25.806667 7.14-34.6s11.583333-13.19 20.47-13.19c8.633333 0 15.233333 3.626667 19.8 10.88s6.853333 16.793333 6.86 28.62c0 8.666667-2.19 18.27-6.57 28.81s-11.583333 22.93-21.61 37.17zm330.71 181v107.14c0 14.795708-11.994292 26.79-26.79 26.79h-196.42c-14.795708 0-26.79-11.994292-26.79-26.79v-107.14c0-14.795708 11.994292-26.79 26.79-26.79h13.39v-40.17c0-46.844792 37.975208-84.82 84.82-84.82s84.82 37.975208 84.82 84.82v40.18h13.39c14.791804 0 26.784479 11.988197 26.79 26.78zm-97.91 52c0-14.746003-11.953997-26.7-26.7-26.7s-26.7 11.953997-26.7 26.7 11.953997 26.7 26.7 26.7c14.730396 0 26.677932-11.929621 26.7-26.66zm13.09-119c0-22.190801-17.989199-40.18-40.18-40.18s-40.18 17.989199-40.18 40.18v40.18h80.36z"/></svg>

<svg id="Layer_1" data-name="Layer 1" xmlns="http://www.w3.org/2000/svg" viewBox="0 0 642 642"><path d="M428.21,252.91q-1-32.89,21.61-53.72t55.7-20.82q37.71,0,60.18,20.66t22.47,58.37a66.4,66.4,0,0,1-9.71,34.94,67.09,67.09,0,0,1-26.66,25A65.12,65.12,0,0,1,569,327.65a124.76,124.76,0,0,0-90.32-5.33V297.2h27q14.47,0,21.52-10.31t7-28.83q0-16.23-7-26.34T507,221.6q-10.67,0-18.38,9T481,254H428.59Zm88.79,188h-.05a.67.67,0,0,0-.13.16v.2h.37v-.18a.36.36,0,0,0-.16-.19ZM50.21,240.07l51.42-1.14V459.63h54.08V182.18L50.21,201Zm261.08,87-75.6,95.79v36.75H372.86a67,67,0,0,1,19.31-12.82v-5.71a124.92,124.92,0,0,1,2.46-24.7H305.77l36.18-51.8q27.8-35,39.7-56.75a96.66,96.66,0,0,0,11.9-47.23q0-38.08-21.33-60.18t-59.41-22.09q-37.33,0-59.41,26.18t-21.33,63.89l.38,1H285.2q0-21.41,7.14-34.6t20.47-13.19q12.95,0,19.8,10.88t6.86,28.62q0,13-6.57,28.81T311.29,327.09ZM642,508.07V615.21A26.79,26.79,0,0,1,615.21,642H418.79A26.79,26.79,0,0,1,392,615.21V508.07a26.79,26.79,0,0,1,26.79-26.79h13.39V441.11a84.82,84.82,0,0,1,169.64,0v40.18h13.39A26.79,26.79,0,0,1,642,508.07Zm-97.91,52a26.7,26.7,0,1,0-26.7,26.7A26.7,26.7,0,0,0,544.09,560.11Zm13.09-119a40.18,40.18,0,1,0-80.36,0v40.18h80.36Z"/></svg>
